X:297
T:Danza de San Pedro
R:Danza
C:Tradicional
S:Música Tradicional Asturiana, (C) Tello & Tito. Asturies, 2001.
S:http://pagina.de/MusTradAst <telloytito@asturies.org>
A:Asturies
B:Fausto Vigil "La Tierrina" (1909)
Z:ByD IDEA
M:6/8
L:1/8
Q:1/4=56
K:C
"voz"
AAA|: A{BA}G [EA] A2 A|A3 AGG|F{GF}E2 A2 G|G2 AG A G|F{GF}E2 E3-|E3
"coro"
C2 D|E3 FFF|F{GF}E2 {FED}C2 D|E3 EFE|D{ED} C2 [F2A2] [EG]|
|[G2E2]AG AG|[FD]{GF}[E2C2][E3C3]-|[E3C3] AAA :|
